X:955
T:Ae' Fond Kiss #2
C:Joe Buchanan's Scottish Tome - Page 558.1
I:558 1
Z:Carl Allison
C:Robert Burns
R:Waltz
L:1/4
M:3/4
K:F
"F"A2 A | "Am"(c2 "Bb"d) | "F"F2 C | "Bb"(D F2) | "Bb"d2 d | "Gm"(f2 d) | "C7"c2 G | "F"(A c2) |
"Bb"(B2 d) | "Gm"f2 F | "F"F2 C | "Bb"(D F2) | "F"(A2 G) | "Dm"A2 "Bb"d | "Am"(c2 A) | "C"(G "F"A2) :|

